!!!OTL: 561. Alles steht in Gottes Hand.
!!!ARE: Europa, Mitteleuropa, Deutschland, Hessen, Odenwald
!!!SCT: E0561A
!!!TXL: @@DE
!!!YEM: Copyright 1995, estate of Helmut Schaffrath.
**kern	**text
*ICvox	*
*M3/4	*
*k[b-e-]	*
*B-:	*
!LO:TX:a:t=Sehr mäßig.	!
!LO:TX:a:t=Aus dem Odenwald.	!
{4f	O
=1	=1
8b-	En-
16aL	-gel,
16gJ	.
4f	al-
4g	-ler-
=2	=2
8f	-ſchön-
16fL	-ſtes
16e-J	.
8d}	Kind,
{8f	ſieh
8b-	doch
8cc	wie
=3	=3
4dd	ich
4dd	mich
(8ddL	quä-
8ccJ)	.
=4	=4
4b-	-le!
4r}	.
{8fL	Mein
16g	.
16aJ	.
=5	=5
8b-	Herʒ
16b-L	das
16aJ	.
4g	rinnt,
8gL	das
16a	.
16b-J	.
=6	=6
8cc	Blut
16ccL	rausſpringt,
16aJ	.
8f}	.
{8f	o
8b-	En-
8cc	-gel
=7	=7
4dd	al-
4dd	-ler-
(8dd	-ſchön-
8cc)	-ſtes
=8	=8
4b-	Kind.
4r}	.
==	==
!!!AGN: Liebes - Lied
!!!ONB: ESAC (Essen Associative Code) Database: ERK1
!!!AMT: simple triple
!!!AIN: vox
!!!EED: Helmut Schaffrath
!!!EEV: 1.0
!!!GTL: Liebeslieder [Neuere (aus dem 18. bis 19. Jahrh.) - Liebeslust]
!!!URL-scan: https://rosdok.uni-rostock.de/mcrviewer/recordIdentifier/rosdok_ppn745177662/iview2/phys_0392.iview2?x=-128.77276441889308&y=937.9757543732412&scale=0.5870222003877485&rotation=0&layout=singlePageLayout
!!!ENC: Anna Maria Matuszewska
!!!EEV: 2024/10/12
*-	*-
